X:80
T:Fair and Forty (hornpipe) 
B:CRE2.302 (Daichead is DathÃÂÃÂÃÂÃÂºil)
F:file ID: cre.2/080fair_f
S:Paddy O'Brien 
L:1/8
M:C
R:hornpipe
Q:150
K:G
(3DEF|GABc (3dcd Bd|efgf edcB|ceAc (3Bcd GB|cBAG FDEF|
GABc (3dcd Bd|efgf edcB|ceAc (3Bcd GB|cAFA G2:|
Bd|gfga (3bag dg|edef gdBd|gfga (3bag dg|edcB (3ABA Bd|
gfga (3bag dg|edef (3gfe BG|DGBd (3ged Bd|cAFA G2:|

%%%

